X:1
T:Ghostbusters
T:We Belong Together (Toy Story 3)
T:Trombone Accompaniment
T:Randy Newman arr. Ross Llewallyn
C:Ray Parker arr. Ross Llewallyn
L:1/8
Q:1/2=84
M:2/2
K:Db
V:1 bass nm="Piano" snm="Pno."
V:1
 z8 | z4 z G,G,G, | z8 | z2 z G, G,G,G,G, | z2 z G,, A,,B,,D,G, | z G, z E, G, z E,2 | %6
 z4 B,,D,E,G, | z G, z G, E, z D,2 | z4 B,,D,E,G, | z G, z E, G, z A,2 | B,4 A,4 | G,4 E,4 | %12
"^Verse 1" D,8 | z8 | z8 | z8 | z8 | z8 | z2 G,G, G,G, z G,- | G,2 A,2 B,2 z2 | z8 | z4 z G,G,G, | %22
 z8 | z8 | z8 | z8 | z4 G,4 | B,2 =B,2 _B,A, z G,- | G,8 | F,8 | z8 | z8 | E,8 | F,8 | B,,8 | z8 | %36
 G,8 | F,8 | z8 | z8 | A,,8 | A,8 | z2 B,A, z B,A, z | B,2 A,2 B,D D2- |"^Chorus 1" D8 | z8 | %46
 z4 G,A,B,=B,- | B,2 _B,2 A,B, z G,- | G,8 | z8 | z8 | z8 | z8 | z8 | z4 z2 z G,- | %55
 G,2 B, z A,G,E,D,- | D,8 | z8 | z2 E,E, G,2 A,2 | B,D- D2 =B,_B,A,G,- | G,8 | z8 | z8 | z8 | z8 | %65
 z8 | z8 | z G, z B, z D- D2 |"^Instrumental 1" z2 B,B, z B, z G, | B,2 =B,2 D2 z2 | %70
 z2 z B, z =B, z D- | D2 =B,2 _B,2 G,2 |"^Verse 2" z8 | z4 z G,G,G, | z8 | z4 z G,G,G, | z8 | z8 | %78
 z2 G,G, G,G, z G,- | G,2 A,2 B,2 z2 | z8 | z4 z G,G,G, | z8 | z2 z G, G,G, z G, | z8 | z8 | %86
 z4 G,4 | B,2 =B,2 _B,A, z G,- | G,8 | F,8 | z8 | z8 | E,8 | D,6 =B,,2 | B,,8 | z4 z B,A,G,- | %96
 G,8 | F,8 | z8 | z8 | A,8- | A,8 | z8 | B,2 A,2 B,D D2- |"^Chorus 2" D8 | z8 | z4 z A,B,=B,- | %107
 B,2 _B,2 A,B, z G,- | G,8 | z8 | z8 | z8 | z8 | z8 | z4 z2 z A,- | A,2 B, z A,G,E,D,- | D,8 | z8 | %118
 z2 E,E, G,2 A,2 | B,D- D2 =B,_B,A,G,- | G,8 | z8 | z8 | z8 | z8 | z8 | z8 | z8 |: %128
"^Intrumental 2 + Solos" z2 B,B,- !-(!B,2 !-)!G,2 | B,2 =B,D z4 | z2 B,B,- !-(!B,2 !-)!D2 | %131
 D2 =B,2 _B,2 G,2 | z2 B,B,- !-(!B,2 !-)!G,2 | B,2 =B,D z4 | z2 B,B,- !-(!B,2 !-)!D2 | %135
 D2 =B,2 _B,2 G,2 :| %136

